src/assets/KomoditasButton.svg

<svg width="180" height="118" viewBox="0 0 180 118" fill="none" xmlns="http://www.w3.org/2000/svg">
<g clip-path="url(#clip0)">
<rect width="180" height="118" rx="10" fill="#2F9C95"/>
<path opacity="0.2" d="M171 59.5C171 89.5995 146.6 114 116.5 114C86.4005 114 62 89.5995 62 59.5C62 29.4005 86.4005 5 116.5 5C146.6 5 171 29.4005 171 59.5ZM87.0522 59.5C87.0522 75.7636 100.236 88.9478 116.5 88.9478C132.764 88.9478 145.948 75.7636 145.948 59.5C145.948 43.2364 132.764 30.0522 116.5 30.0522C100.236 30.0522 87.0522 43.2364 87.0522 59.5Z" fill="#1E524E"/>
<path opacity="0.1" d="M-38.7553 173.897C18.5964 147.203 10.2425 99.5421 51.1825 60.6102C126.051 -10.5857 249.383 90.1673 283 -67H-188V152.411C-188 183.012 -96.107 200.591 -38.7553 173.897Z" stroke="black" stroke-width="2" stroke-dasharray="5 4"/>
<circle cx="21.49" cy="102.49" r="7.49" fill="#FFBA49"/>
<path d="M8.74905 -5.01829C5.47758 -2.15073 3.28706 1.75092 2.54221 6.03702C1.79736 10.3231 2.54313 14.735 4.65535 18.5382C6.76757 22.3413 10.1188 25.3062 14.151 26.9392C18.1832 28.5722 22.6532 28.7747 26.8165 27.513L24.2066 18.9005C22.0116 19.5657 19.6549 19.4589 17.5291 18.5979C15.4032 17.737 13.6363 16.1738 12.5227 14.1687C11.4091 12.1636 11.0159 9.83757 11.4086 7.57784C11.8013 5.31812 12.9562 3.26108 14.681 1.74924L8.74905 -5.01829Z" fill="#2E4057"/>
<path d="M104.255 110.413C103.033 110.016 101.733 109.927 100.468 110.153C99.2038 110.379 98.0147 110.913 97.0061 111.708C95.9974 112.503 95.2005 113.535 94.6857 114.711C94.171 115.888 93.9545 117.174 94.0552 118.454C94.156 119.734 94.571 120.97 95.2635 122.052C95.9559 123.134 96.9044 124.028 98.025 124.655C99.1456 125.283 100.404 125.624 101.688 125.65C102.972 125.675 104.242 125.383 105.387 124.8L103.035 120.184C102.65 120.381 102.222 120.479 101.79 120.47C101.357 120.462 100.934 120.347 100.556 120.136C100.179 119.924 99.8594 119.623 99.6263 119.259C99.3931 118.895 99.2534 118.479 99.2194 118.047C99.1855 117.616 99.2584 117.183 99.4317 116.787C99.6051 116.391 99.8734 116.044 100.213 115.776C100.553 115.508 100.953 115.328 101.379 115.252C101.805 115.176 102.243 115.206 102.654 115.34L104.255 110.413Z" fill="#40C9A2"/>
<path d="M37.9816 54.5295C38.9653 54.9882 40.0469 55.1972 41.1307 55.138C42.2145 55.0788 43.2669 54.7533 44.1948 54.1902C45.1227 53.6272 45.8974 52.844 46.4503 51.91C47.0032 50.976 47.3173 49.9201 47.3646 48.8357C47.412 47.7514 47.1911 46.6721 46.7217 45.6935C46.2523 44.7148 45.5488 43.8671 44.6735 43.2253C43.7982 42.5835 42.7782 42.1675 41.7037 42.0141C40.6292 41.8607 39.5335 41.9746 38.5136 42.3458L40.0108 46.4594C40.3542 46.3344 40.7232 46.2961 41.085 46.3477C41.4468 46.3994 41.7903 46.5395 42.085 46.7556C42.3798 46.9717 42.6166 47.2572 42.7747 47.5867C42.9328 47.9162 43.0071 48.2796 42.9912 48.6448C42.9752 49.0099 42.8695 49.3654 42.6833 49.6799C42.4971 49.9944 42.2363 50.2582 41.9238 50.4478C41.6114 50.6374 41.257 50.747 40.892 50.7669C40.5271 50.7868 40.1629 50.7165 39.8317 50.562L37.9816 54.5295Z" fill="#40C9A2"/>
<circle opacity="0.9" cx="45.34" cy="9.34" r="4.34" fill="#FFBA49"/>
</g>
<defs>
<clipPath id="clip0">
<rect width="180" height="118" rx="10" fill="white"/>
</clipPath>
</defs>
</svg>

<svg xmlns="http://www.w3.org/2000/svg" width="118" height="118" fill="none" viewBox="0 0 118 118">
    <g clip-path="url(#clip0)">
        <rect width="118" height="118" fill="#2F9C95" rx="10"/>
        <path fill="#1E524E" d="M171 59.5c0 30.1-24.4 54.5-54.5 54.5S62 89.6 62 59.5 86.4 5 116.5 5 171 29.4 171 59.5zm-83.948 0c0 16.264 13.184 29.448 29.448 29.448 16.264 0 29.448-13.184 29.448-29.448 0-16.264-13.184-29.448-29.448-29.448-16.264 0-29.448 13.184-29.448 29.448z" opacity=".2"/>
        <path stroke="#000" stroke-dasharray="5 4" stroke-width="2" d="M-38.755 173.897C18.596 147.203 10.243 99.542 51.183 60.61 126.05-10.586 249.382 90.167 283-67h-471v219.411c0 30.601 91.893 48.18 149.245 21.486z" opacity=".1"/>
        <circle cx="21.49" cy="102.49" r="7.49" fill="#FFBA49"/>
        <path fill="#2E4057" d="M8.749-5.018C5.478-2.151 3.287 1.75 2.542 6.037c-.745 4.286.001 8.698 2.113 12.501 2.113 3.803 5.464 6.768 9.496 8.401s8.502 1.836 12.666.574l-2.61-8.613c-2.195.666-4.552.559-6.678-.302-2.126-.861-3.893-2.424-5.006-4.43-1.114-2.004-1.507-4.33-1.114-6.59.392-2.26 1.547-4.317 3.272-5.829L8.749-5.018z"/>
        <path fill="#40C9A2" d="M104.255 110.413c-1.222-.396-2.522-.486-3.787-.26-1.264.226-2.453.76-3.462 1.555-1.009.795-1.805 1.827-2.32 3.003-.515 1.177-.732 2.463-.63 3.743.1 1.28.515 2.516 1.207 3.598.693 1.082 1.641 1.976 2.762 2.603 1.12.628 2.379.969 3.663.995 1.284.025 2.554-.267 3.699-.85l-2.352-4.616c-.385.197-.813.295-1.245.287-.433-.009-.856-.124-1.234-.335-.377-.212-.697-.513-.93-.877-.233-.364-.373-.78-.407-1.211-.033-.432.04-.865.213-1.261.173-.396.441-.743.781-1.011.34-.268.74-.448 1.166-.524.426-.076.864-.046 1.275.088l1.601-4.927zM37.982 54.53c.983.458 2.065.667 3.149.608 1.084-.06 2.136-.385 3.064-.948.928-.563 1.702-1.346 2.255-2.28.553-.934.867-1.99.915-3.074.047-1.085-.174-2.164-.643-3.142-.47-.98-1.173-1.827-2.048-2.469-.876-.642-1.896-1.058-2.97-1.21-1.075-.154-2.17-.04-3.19.33l1.497 4.114c.343-.125.712-.163 1.074-.111.362.051.705.191 1 .408.295.216.532.501.69.83.158.33.232.694.216 1.059-.016.365-.121.72-.308 1.035-.186.315-.447.578-.76.768-.312.19-.666.299-1.03.319-.366.02-.73-.05-1.061-.205l-1.85 3.968z"/>
        <circle cx="45.34" cy="9.34" r="4.34" fill="#FFBA49" opacity=".9"/>
    </g>
    <defs>
        <clipPath id="clip0">
            <rect width="118" height="118" fill="#fff" rx="10"/>
        </clipPath>
    </defs>
</svg>
